X: 38289
T: St. Louis
R: waltz
M: 3/4
K: Gmajor
D2|B3 A Bc|B3 A Bc|B2 G2 E2|D2 B,2 B2|d3 A c2|d3 A c2|d2 f3 e|d3 A c2|
B3 A Bc|B3 A Bc|B2 G3 E|D2 G2 B2|d2 A2 B2|c2 B2 BA|G3 A GF|G4:|
|:AB|c2 EE E2|c2 B2 A2|B2 DD D2|B2 A2 G2|A2 A2 AB|c2 B2 BA|G2 B2 e2|d4 AB|
c2 EE E2|c2 B2 A2|B2 DD D2|B2 A2 G2|A2 A2 AB|c2 B2 BA|G3 A GF|G4:|

